X:1
T:Title
%%score { ( 1 3 ) | 2 }
L:1/8
M:3/4
K:Bb
V:1 treble nm="Grand Piano"
V:3 treble 
V:2 bass 
V:1
 z2 z2[Q:1/4=128] [DF]2 | d2 _d2 =d2 | B2 A2 B2 | [Gc]2 [GB]2 G2 | F4 F2 | B2 B2 B2 | %6
 B2 [FA]2 [FB]2 | [=Ed]2 [Ec]2 [E=B]2 | [Ec]4 [EF]2 | [Dd]2 [=E_d]2 [F=d]2 | B2 A2 B2 | %11
 [Gc]2 [GB]2 G2 | F4 z2 | G3 ^F G2 | A3 G A2 | [DB]6- |[M:2/4] [DB]4 |] %17
V:2
 z2 z2 [B,,B,]2 | [B,F]2 [B,=E]2 [B,F]2 | [B,DF]2 [CEF]2 [B,DF]2 | [E,E]2 [E,E]2 [G,B,E]2 | %4
 [B,D]4 [A,C]2 | [G,B,D]2 [G,B,E]2 [G,B,=E]2 | [F,CF]2 [E,C]2 [D,B,]2 | [C,B,]2 [C,A,]2 [C,_A,]2 | %8
 [F,,A,]4 [F,A,]2 | [B,,B,]2 [B,,B,]2 [B,,B,]2 | [B,DF]2 [B,CE]2 [B,DF]2 | [E,E]2 [E,E]2 [G,B,E]2 | %12
 [A,CE]2 B,2 [D,B,]2 | [E,B,E]3 [E,A,E] [E,B,E]2 | [F,E]3 [F,DE] [F,CE]2 | [B,,B,]6- | %16
[M:2/4] [B,,B,]4 |] %17
V:3
 x6 | x6 | x6 | x6 | x6 | x6 | x6 | x6 | x6 | x6 | x6 | x6 | z2 D2 F2 | x6 | x6 | x6 |[M:2/4] x4 |] %17

